X: 1
T: Ballyvourney, The
M: 2/4
L: 1/8
R: polka
K: Edor
|:EF/G/ FE|FD FA|EF/G/ FE|F2 FA|
EF/G/ FE|FD FA|B>A B/c/d|1 e2 e2:|2 e2 eB/c/||
|:dA FA|DA FA|c>B GB|A2 AB/c/|dA FA|
DA FA|B>A B/c/d|1 e2 f>e:|2 e2 e2||
